modules/feathericon/icons/remove-cart.svg

<?xml version="1.0" encoding="UTF-8"?>
<svg width="12px" height="12px" viewBox="0 0 12 12" version="1.1" xmlns="http://www.w3.org/2000/svg" xmlns:xlink="http://www.w3.org/1999/xlink">
    <!-- Generator: sketchtool 48.1 (47250) - http://www.bohemiancoding.com/sketch -->
    <title>remove-cart</title>
    <desc>Created with sketchtool.</desc>
    <defs></defs>
    <g id="e-commerce" stroke="none" stroke-width="1" fill="none" fill-rule="evenodd">
        <g id="remove-cart" fill="#000000">
            <path d="M3,1 L3.5,1 C3.77614237,1 4,0.776142375 4,0.5 C4,0.223857625 3.77614237,0 3.5,0 L0.5,0 C0.223857625,0 -3.38176876e-17,0.223857625 0,0.5 C3.38176876e-17,0.776142375 0.223857625,1 0.5,1 L2,1 L2,9 C2,9.66666667 2.33333333,10 3,10 C2.99814717,10 5.49814717,10 10.5,10 C10.8247852,9.98637567 10.9914518,9.82652117 11,9.5 C11.0085482,9.17347883 10.8418815,9 10.5,9 L3,9 L3,8 L11,8 C11.5522847,8 12,7.55228475 12,7 L12,2 L11,2 L11,7 L3,7 L3,2 L3,1 Z M5,2.33333333 L5,3.66666667 L9,3.66666667 L9,2.33333333 L5,2.33333333 Z M4,12 C4.55228475,12 5,11.5522847 5,11 C5,10.4477153 4.55228475,10 4,10 C3.44771525,10 3,10.4477153 3,11 C3,11.5522847 3.44771525,12 4,12 Z M9,12 C9.55228475,12 10,11.5522847 10,11 C10,10.4477153 9.55228475,10 9,10 C8.44771525,10 8,10.4477153 8,11 C8,11.5522847 8.44771525,12 9,12 Z" id="Shape"></path>
        </g>
    </g>
</svg>

<svg width="12" height="12" viewBox="0 0 12 12" xmlns="http://www.w3.org/2000/svg"><path d="M3 1h.5a.5.5 0 0 0 0-1h-3a.5.5 0 1 0 0 1H2v8c0 .667.333 1 1 1h7.5c.325-.014.491-.173.5-.5.009-.327-.158-.5-.5-.5H3V8h8a1 1 0 0 0 1-1V2h-1v5H3V1zm2 1.333v1.334h4V2.333H5zM4 12a1 1 0 1 0 0-2 1 1 0 0 0 0 2zm5 0a1 1 0 1 0 0-2 1 1 0 0 0 0 2z" fill="#000" fill-rule="evenodd"/></svg>
